frontend/icons/warning.svg

<svg width="24" height="24" viewBox="0 0 24 24" fill="none" xmlns="http://www.w3.org/2000/svg">
<path d="M11.9998 8.99999V13M11.9998 17H12.0098M10.6151 3.89171L2.39019 18.0983C1.93398 18.8863 1.70588 19.2803 1.73959 19.6037C1.769 19.8857 1.91677 20.142 2.14613 20.3088C2.40908 20.5 2.86435 20.5 3.77487 20.5H20.2246C21.1352 20.5 21.5904 20.5 21.8534 20.3088C22.0827 20.142 22.2305 19.8857 22.2599 19.6037C22.2936 19.2803 22.0655 18.8863 21.6093 18.0983L13.3844 3.89171C12.9299 3.10654 12.7026 2.71396 12.4061 2.58211C12.1474 2.4671 11.8521 2.4671 11.5935 2.58211C11.2969 2.71396 11.0696 3.10655 10.6151 3.89171Z" stroke="#F79009" stroke-width="2" stroke-linecap="round" stroke-linejoin="round"/>
</svg>

<svg xmlns="http://www.w3.org/2000/svg" width="24" height="24" fill="none" viewBox="0 0 24 24"><path stroke="#f79009" stroke-linecap="round" stroke-linejoin="round" stroke-width="2" d="M12 9v4m0 4h.01M10.615 3.892 2.39 18.098c-.456.788-.684 1.182-.65 1.506a1 1 0 0 0 .406.705c.263.191.718.191 1.629.191h16.45c.91 0 1.365 0 1.628-.191a1 1 0 0 0 .407-.705c.034-.324-.195-.718-.65-1.506L13.383 3.892c-.454-.785-.681-1.178-.978-1.31a1 1 0 0 0-.812 0c-.297.132-.524.525-.979 1.31"/></svg>
